X: 1
T:Men of Work
M:4/4
L:1/8
Q:120
Z:Michael J Green
K:G
|: B>cd>e d>BA>G | g>ab>a g2 g>f | e>fg>f e>dB>G |1 A>Bc>d A4 :|2 (3ABA G>F G4 ||
|: a2a>b a>fe>d | g>ab>a g2 g>f | e>fg>f e>dB>G |1 A>Bc>d A4 :|2 (3ABA G>F G4 ||
